X:67
T:The Boatman
C:John Playford, 1651
M:6/8
L:1/8
S:Colin Hume's website,  colinhume.com  - chords can also be printed below the stave.
Q:1/2=92
N:Also for the dance "Park Lane" by Colin Hume
K:C
P:A
|: "C"GE2 "G/B"G2G | "Am"GE2 "G"G2G | "F"c2c "Dm"B2A | "G7"d3 D3 |\
"C"GE2 "G/B"G2G | "Am"GE2 "G"G2G | "F"c2d "G7"e2d | "C"c3 C3 :|
P:B
|: "Am"c2d e2d | "Em"c2B A2G | "Dm"F2F E2D | "G7"d3 D3 |\
"C"GE2 "G/B"G2G | "Am"GE2 "G"G2G | "F"c2d "G7"e2d | "C"c3 C3 :|

